X:167
T:De bonté, de valour
C:Guillaume de Machaut
M:6/8
L:1/8
Q:1/4=132
K:F 
V:1
% Staff-1
% de bont\0xe9 de valour
% Generated by NoteWorthy Composer
dcd BA2|BG2 A3|E3 FE2|FD2 _G3|
=G_G2 =GA2|B3 A3|dcd BA2|BG2 A3|
E3 FE2|FD2 _G=G2|A3 G3|ed2 dc2|
d3 Gd2|ed2 cB2|AG2 FG2|A3z3|
ed2 dc2|d3 Gd2|ed2 cB2|AG2 AF2|
G3z3|dcd BA2|BG2 A3|E3 FE2|
FD2 _G3|=G_G2 =GA2|B3 A3|dcd BA2|
BG2 A3|E3 FE2|FD2 _G=G2|A3 G3 |]
V:2
% Staff-2
% de bont\0xe9 de valour
% Generated by NoteWorthy Composer
A,6|B,6|G,6|A,6|
B,6-|B,6|A,6|B,6|
G,6|A,6-|A,6|C6|
D6|E6|C6|A,6|
C6|D6|E6|C6|
G,6|A,6|B,6|G,6|
A,6|B,6-|B,6|A,6|
B,6|G,6|A,6-|A,6 |]
% Tempo Track





